X:1
T:Cowper, CM
T:Cowper, CM
T:Lowell Mason, 1830
T:Public Domain Courtesy of the Cyber Hymnal™
C:Lowell Mason, 1830
Z:Public Domain
Z:Courtesy of the Cyber Hymnal™
%%score ( 1 2 ) ( 3 4 )
L:1/8
Q:1/4=150
M:3/2
K:Db
V:1 treble 
V:2 treble 
V:3 bass 
V:4 bass 
V:1
 (F3 G) | [DA]3 [DB] [DA]4 [DF]4 | [Dd]3 [DB] [DA]4 D4 | [CE]2 [DF]2 [EG]4 [DF]4 | %4
 ([DF]4 [CE]4) (F3 G) | [DA]3 [DB] [DA]4 [DF]4 | [Dd]3 [DB] [DA]4 [Ad]4 | [Ge]2 [Ge]2 [Fd]4 [Ec]4 | %8
 [Fd]8 D4 | [DE]2 [DG]2 [DF]4 [CE]4 | D8 |] %11
V:2
 D4 | x12 | x8 D4 | x12 | x8 D4 | x12 | x12 | x12 | x8 D4 | x12 | D8 |] %11
V:3
 (D,3 E,) | [D,F,]3 [D,G,] [D,F,]4 [D,A,]4 | [D,B,]3 [D,G,] [D,F,]4 [F,A,]4 | %3
 [G,A,]2 [F,A,]2 [C,A,]4 [D,A,]4 | [A,,A,]8 (D,3 E,) | [D,F,]3 [D,G,] [D,F,]4 [D,A,]4 | %6
 [D,B,]3 [D,G,] [D,F,]4 [F,A,]4 | [G,B,]2 [G,B,]2 A,4 [A,,A,]4 | [D,A,]8 [D,B,]4 | %9
 [G,,B,]2 [G,,B,]2 [A,,A,]4 [A,,G,]4 | [D,F,]8 |] %11
V:4
 D,4 | x12 | x12 | x12 | x8 D,4 | x12 | x12 | x4 A,4 x4 | x12 | x12 | x8 |] %11

